packages/bpk-svgs/src/icons/sm/centre-location.svg

<svg viewBox="0 0 24 24" fill="none" xmlns="http://www.w3.org/2000/svg">
<path d="M3 4.5V7.5C3 8.32843 2.32843 9 1.5 9C0.671573 9 0 8.32843 0 7.5V4.5C0 2.01472 2.01472 0 4.5 0H7.5C8.32843 0 9 0.671573 9 1.5C9 2.32843 8.32843 3 7.5 3H4.5C3.67157 3 3 3.67157 3 4.5Z" fill="#111236"/>
<path d="M16.5 0H19.5C21.9853 0 24 2.01472 24 4.5V7.5C24 8.32843 23.3284 9 22.5 9C21.6716 9 21 8.32843 21 7.5V4.5C21 3.67157 20.3284 3 19.5 3H16.5C15.6716 3 15 2.32843 15 1.5C15 0.671573 15.6716 0 16.5 0Z" fill="#111236"/>
<path d="M3 16.5V19.5C3 20.3284 3.67157 21 4.5 21H7.5C8.32843 21 9 21.6716 9 22.5C9 23.3284 8.32843 24 7.5 24H4.5C2.01472 24 0 21.9853 0 19.5V16.5C0 15.6716 0.671573 15 1.5 15C2.32843 15 3 15.6716 3 16.5Z" fill="#111236"/>
<path d="M24 16.5V19.5C24 21.9853 21.9853 24 19.5 24H16.5C15.6716 24 15 23.3284 15 22.5C15 21.6716 15.6716 21 16.5 21H19.5C20.3284 21 21 20.3284 21 19.5V16.5C21 15.6716 21.6716 15 22.5 15C23.3284 15 24 15.6716 24 16.5Z" fill="#111236"/>
<path d="M16.5 10.5C16.5 12.4593 15.2478 14.1262 13.5 14.7439V18C13.5 18.8284 12.8284 19.5 12 19.5C11.1716 19.5 10.5 18.8284 10.5 18V14.7439C8.75221 14.1262 7.5 12.4593 7.5 10.5C7.5 8.01472 9.51472 6 12 6C14.4853 6 16.5 8.01472 16.5 10.5Z" fill="#111236"/>
</svg>

<svg xmlns="http://www.w3.org/2000/svg" viewBox="0 0 24 24"><path d="M3 4.5v3a1.5 1.5 0 1 1-3 0v-3A4.5 4.5 0 0 1 4.5 0h3a1.5 1.5 0 1 1 0 3h-3A1.5 1.5 0 0 0 3 4.5zM16.5 0h3A4.5 4.5 0 0 1 24 4.5v3a1.5 1.5 0 0 1-3 0v-3A1.5 1.5 0 0 0 19.5 3h-3a1.5 1.5 0 0 1 0-3zM3 16.5v3A1.5 1.5 0 0 0 4.5 21h3a1.5 1.5 0 0 1 0 3h-3A4.5 4.5 0 0 1 0 19.5v-3a1.5 1.5 0 0 1 3 0zM24 16.5v3a4.5 4.5 0 0 1-4.5 4.5h-3a1.5 1.5 0 0 1 0-3h3a1.5 1.5 0 0 0 1.5-1.5v-3a1.5 1.5 0 0 1 3 0zM16.5 10.5a4.502 4.502 0 0 1-3 4.244V18a1.5 1.5 0 0 1-3 0v-3.256A4.502 4.502 0 0 1 12 6a4.5 4.5 0 0 1 4.5 4.5z"/></svg>
